X: 42707
T: Whistling Bitch, The
R: reel
M: 4/4
K: Dmajor
~d3c dAde|fedA BAFE|Dddc dABd|ABgf eABc|
dfec ~d3e|fedA BAFE|DFAF GBgf|1 eABc dgfe:|2 eABc d2ag||
|:fd~d2 edBA|fd~d2 faba|fd~d2 edBA|GBGF EA,CE|
D3E FA~A2|BABc dBAF|DFAF GBgf|1 eABc d2ag:|2 eABc dgfe||

